build/service/EquallySolid.svg

<svg xmlns="http://www.w3.org/2000/svg" fill="none" viewBox="0 0 24 24" focusable="false"><path d="M0 0H24V24H0z" transform="rotate(-180 12 12)"/><path fill="#74767B" fill-rule="evenodd" d="M12 21C7.02944 21 3 16.9706 3 12C3 7.02944 7.02944 3 12 3C16.9706 3 21 7.02944 21 12C21 16.9706 16.9706 21 12 21ZM15.3424 13.105C15.7014 13.105 15.9924 13.396 15.9924 13.755C15.9924 14.114 15.7014 14.405 15.3424 14.405L8.65757 14.405C8.29858 14.405 8.00757 14.114 8.00757 13.755C8.00757 13.396 8.29858 13.105 8.65757 13.105L15.3424 13.105ZM15.3424 9.5951C15.7014 9.5951 15.9924 9.88612 15.9924 10.2451C15.9924 10.6041 15.7014 10.8951 15.3424 10.8951L8.65787 10.8951C8.29888 10.8951 8.00787 10.6041 8.00787 10.2451C8.00787 9.88612 8.29888 9.5951 8.65787 9.5951L15.3424 9.5951Z"/></svg>

<svg xmlns="http://www.w3.org/2000/svg" fill="none" viewBox="0 0 24 24" focusable="false"><path fill="#74767B" fill-rule="evenodd" d="M12 21c-4.98 0-9-4.03-9-9 0-4.98 4.02-9 9-9 4.97 0 9 4.02 9 9a9 9 0 0 1-9 9m3.34-7.9c.36 0 .65.29.65.65s-.29.65-.65.65H8.65c-.36 0-.65-.29-.65-.65s.29-.65.65-.65zm0-3.51c.36 0 .65.29.65.65s-.29.65-.65.65H8.65c-.36 0-.65-.29-.65-.65s.29-.65.65-.65z"/></svg>
